assets/sonr-icons/chats.svg

<svg xmlns="http://www.w3.org/2000/svg" width="24" height="24" fill="none" viewBox="0 0 24 24"><path fill="#000" d="M20.61 19.19C21.478 18.037 21.999 16.582 21.999 15.004C21.999 12.178 20.324 9.74401 17.913 8.63701L17.87 8.61901C17.193 4.82801 13.923 1.98901 9.98798 1.98901C5.56998 1.98901 1.98798 5.57101 1.98798 9.98901C1.98798 11.852 2.62498 13.566 3.69298 14.926L3.67998 14.909L2.28998 16.289C2.11198 16.47 2.00198 16.717 2.00198 16.991C2.00198 17.131 2.02998 17.264 2.08298 17.385L2.08098 17.378C2.23398 17.743 2.58798 17.996 3.00098 17.998H8.69098C9.83898 20.378 12.231 21.992 15 21.998H21.001C21.414 21.996 21.768 21.744 21.918 21.384L21.92 21.377C21.969 21.262 21.998 21.13 21.998 20.989C21.998 20.715 21.888 20.467 21.71 20.286L20.611 19.187L20.61 19.19ZM7.99998 15C8.00198 15.354 8.03098 15.701 8.08498 16.038L8.07998 16H5.40998L5.75998 15.66C5.94298 15.478 6.05498 15.227 6.05498 14.95C6.05498 14.673 5.94198 14.421 5.75898 14.24C4.67198 13.165 3.99898 11.673 3.99898 10.024C3.99898 10.016 3.99898 10.008 3.99898 9.99901V10.001C3.99898 6.68701 6.68498 4.00101 9.99898 4.00101C10.01 4.00101 10.022 4.00101 10.035 4.00101C12.621 4.00101 14.821 5.65301 15.637 7.96001L15.65 8.00101C15.43 8.00101 15.22 8.00101 15 8.00101C11.134 8.00101 7.99998 11.136 7.99998 15.001V15ZM18.54 20L18.59 20.05H15C12.242 20.045 10.009 17.808 10.009 15.05C10.009 12.289 12.248 10.05 15.009 10.05C17.77 10.05 20.009 12.289 20.009 15.05C20.009 16.433 19.447 17.685 18.541 18.59C18.359 18.768 18.245 19.015 18.241 19.289C18.242 19.567 18.356 19.819 18.541 19.999L18.54 20Z"/></svg>

<svg xmlns="http://www.w3.org/2000/svg" width="24" height="24" fill="none"><path fill="currentColor" d="M20.61 19.19a6.95 6.95 0 0 0 1.389-4.186 7 7 0 0 0-4.086-6.367l-.043-.018c-.677-3.791-3.947-6.63-7.882-6.63a8 8 0 0 0-6.295 12.937l-.013-.017-1.39 1.38a1 1 0 0 0-.207 1.096l-.002-.007c.153.365.507.618.92.62h5.69c1.148 2.38 3.54 3.994 6.309 4h6.001a1 1 0 0 0 .917-.614l.002-.007a1 1 0 0 0-.21-1.091l-1.099-1.099zM8 15q.004.532.085 1.038L8.08 16H5.41l.35-.34a.997.997 0 0 0-.001-1.42 5.9 5.9 0 0 1-1.76-4.216v-.025.002a6 6 0 0 1 6-6h.036a5.94 5.94 0 0 1 5.602 3.959l.013.041H15a7 7 0 0 0-7 7zm10.54 5 .05.05H15a5 5 0 1 1 3.541-1.46 1 1 0 0 0-.3.699c.001.278.115.53.3.71z"/></svg>
